X:0
T:14 days in George
S:Sung by John Perring, Dartmouth, Jan 1908
Z:transcribed by Ruairidh Greig, March 2014
N: Note at end [These? words are obscure]
M:4/4
L:1/8
K:C
|[P:S]c e e d e e2[P:C]d|c2B> A A G-G2|[P:S] c e e d c2e2[P:C]e|g2> e2g4|
w:Four-teen days in Georg-ia We'll all join the Un--ion Four-teen days in Georg-ia Ha Ha Ha Ha
[P:S]e e e de2(e2d)|c> B B A A G2[P:C]G|A2> B2c2> d2|e> c B cA2> G2|
w:Four-teen days in Georg-ia*fight-ing for the Un-ion Ha ha ha ha we'll fight for Unc-le Sam, Come
G A G E G2>G2|c e d c A4|a2> e2 g2> e2|d c c> B d c c G|
w:har-ness up your mule, Be care-ful how you drive< mind your eye Clain John-son and the Maj-or Gener-al
G A G E G2>G2|c e d c A4|a2> e2 g  g e |d c d e c4||
w:of the black brig-ade Why don't you let her up James riv-er a-nd h-* C-* oh





